X:523
T: Yingchuangwang bunaliang
N: C1941
O: China,Henan Wushe
S: IV, 121]
R: Xiaodiao]
M: 2/4
L: 1/16
K: F
A2AcF2FG | A3GA4 | c2f4cA | GAGFG4 |
G3Ac4 | d3f2cA2 | G2GFF2FD | C8 |
f2AGF2FG | A3GA4 | A2AcG2F2 | D3CD4 |
G3Ac2cc | d3cA2G2 | F2F4cA | G3AGFD2 | C8

@@@ Tune index: 7078
